images/hero/house.svg

<svg width="62" height="62" viewBox="0 0 62 62" fill="none" xmlns="http://www.w3.org/2000/svg">
<rect opacity="0.58" width="62" height="62" fill="white"/>
<path d="M57.8667 8.26666V10.3333C59.008 10.3333 59.9333 11.2587 59.9333 12.4V43.4H2.06667V12.4C2.06667 11.2587 2.99202 10.3333 4.13333 10.3333V8.26666C1.85072 8.26666 0 10.1174 0 12.4V47.5333C0 49.8159 1.85072 51.6667 4.13333 51.6667H24.4443L21.9644 59.9333H19.6333V62H42.3667V59.9333H40.0356L37.5557 51.6667H57.8667C60.1493 51.6667 62 49.8159 62 47.5333V12.4C62 10.1174 60.1493 8.26666 57.8667 8.26666ZM37.8776 59.9333H24.1224L26.6023 51.6667H35.3977L37.8776 59.9333ZM59.9333 47.5333C59.9333 48.6746 59.008 49.6 57.8667 49.6H4.13333C2.99202 49.6 2.06667 48.6746 2.06667 47.5333V45.4667H59.9333V47.5333Z" fill="#CB8734"/>
<path d="M8.26668 4.13333C8.26668 2.99202 9.19204 2.06667 10.3333 2.06667H51.6667C52.808 2.06667 53.7333 2.99202 53.7333 4.13333V41.3333H55.8V4.13333C55.8 1.85072 53.9493 0 51.6667 0H10.3333C8.05073 0 6.20001 1.85072 6.20001 4.13333V41.3333H8.26668V4.13333Z" fill="#CB8734"/>
<path d="M16.1706 34.0349L32.7039 40.2349C32.7155 40.2349 32.7286 40.2349 32.7402 40.241C32.8452 40.2778 32.9552 40.298 33.0667 40.3C33.2095 40.297 33.3502 40.2642 33.4799 40.2041C33.4965 40.1966 33.5162 40.2041 33.5329 40.1915L45.9329 33.9915C46.2815 33.8154 46.501 33.4572 46.5 33.0667V20.6667C46.4985 20.597 46.4894 20.5279 46.4733 20.4598C46.4733 20.4487 46.4733 20.4361 46.4733 20.425C46.4384 20.2923 46.3779 20.1682 46.2951 20.0592C46.2871 20.0486 46.2861 20.0344 46.278 20.0228L38.0113 9.68951C37.7071 9.30907 37.1783 9.19252 36.7424 9.41049L16.0757 19.7438C15.724 19.9174 15.5015 20.2746 15.5 20.6667V33.0667C15.4995 33.4975 15.7669 33.8835 16.1706 34.0349ZM22.7767 34.2418V28.1851L24.8434 28.9601V35.0208L22.7767 34.2418ZM44.4333 32.4279L34.1 37.5946V27.5054L44.4333 22.3388V32.4279ZM36.9149 11.631L43.8607 20.3109L33.3517 25.5659L26.406 16.8855L36.9149 11.631ZM17.5667 21.3054L24.5149 17.831L32.0333 27.2294V37.7757L26.9101 35.8569V28.2441C26.9101 27.8132 26.6426 27.4282 26.2395 27.2769L22.1062 25.7269C21.7888 25.6078 21.4336 25.6522 21.1551 25.8449C20.8766 26.0382 20.7101 26.355 20.7101 26.6941V33.5298L17.5667 32.3507V21.3054Z" fill="#CB8734"/>
<path d="M10.3333 37.2V40.3C10.3333 40.8707 10.796 41.3333 11.3666 41.3333H14.4666V39.2667H12.4V37.2H10.3333Z" fill="#CB8734"/>
<path d="M14.4666 8.26666H11.3666C10.796 8.26666 10.3333 8.72934 10.3333 9.3V12.4H12.4V10.3333H14.4666V8.26666Z" fill="#CB8734"/>
<path d="M49.6 39.2667H47.5333V41.3333H50.6333C51.204 41.3333 51.6667 40.8707 51.6667 40.3V37.2H49.6V39.2667Z" fill="#CB8734"/>
<path d="M51.6667 9.3C51.6667 8.72934 51.204 8.26666 50.6333 8.26666H47.5333V10.3333H49.6V12.4H51.6667V9.3Z" fill="#CB8734"/>
</svg>

<svg width="62" height="62" fill="none" xmlns="http://www.w3.org/2000/svg"><path opacity=".58" fill="#fff" d="M0 0h62v62H0z"/><path d="M57.867 8.267v2.066c1.141 0 2.066.926 2.066 2.067v31H2.067v-31c0-1.141.925-2.067 2.066-2.067V8.267A4.134 4.134 0 0 0 0 12.4v35.133a4.134 4.134 0 0 0 4.133 4.134h20.311l-2.48 8.266h-2.33V62h22.733v-2.067h-2.331l-2.48-8.266h20.31A4.134 4.134 0 0 0 62 47.533V12.4a4.134 4.134 0 0 0-4.133-4.133zm-19.99 51.666H24.123l2.48-8.266h8.796l2.48 8.266zm22.056-12.4a2.067 2.067 0 0 1-2.066 2.067H4.133a2.067 2.067 0 0 1-2.066-2.067v-2.066h57.866v2.066z" fill="#CB8734"/><path d="M8.267 4.133c0-1.141.925-2.066 2.066-2.066h41.334c1.141 0 2.066.925 2.066 2.066v37.2H55.8v-37.2A4.134 4.134 0 0 0 51.667 0H10.333A4.134 4.134 0 0 0 6.2 4.133v37.2h2.067v-37.2z" fill="#CB8734"/><path d="m16.17 34.035 16.534 6.2c.011 0 .025 0 .036.006.105.037.215.057.327.059.142-.003.283-.036.413-.096.017-.007.036 0 .053-.013l12.4-6.2c.349-.176.568-.534.567-.924v-12.4a.99.99 0 0 0-.027-.207v-.035a1.043 1.043 0 0 0-.178-.366c-.008-.01-.009-.025-.017-.036L38.011 9.69a1.033 1.033 0 0 0-1.269-.28L16.076 19.744c-.352.173-.575.53-.576.923v12.4c0 .43.267.816.67.968zm6.607.207v-6.057l2.066.775v6.06l-2.066-.778zm21.656-1.814L34.1 37.595v-10.09l10.333-5.166v10.089zM36.915 11.63l6.946 8.68-10.51 5.255-6.945-8.68 10.509-5.255zm-19.348 9.674 6.948-3.474 7.518 9.398v10.547l-5.123-1.92v-7.612c0-.43-.267-.816-.67-.967l-4.134-1.55a1.033 1.033 0 0 0-1.396.967v6.836l-3.143-1.18V21.306zM10.333 37.2v3.1c0 .57.463 1.033 1.034 1.033h3.1v-2.066H12.4V37.2h-2.067zM14.467 8.267h-3.1c-.571 0-1.034.462-1.034 1.033v3.1H12.4v-2.067h2.067V8.267zM49.6 39.267h-2.067v2.066h3.1c.571 0 1.034-.462 1.034-1.033v-3.1H49.6v2.067zM51.667 9.3c0-.57-.463-1.033-1.034-1.033h-3.1v2.066H49.6V12.4h2.067V9.3z" fill="#CB8734"/></svg>
